X:1
T:Title
%%score { ( 1 3 ) | ( 2 4 ) }
L:1/8
M:4/4
K:F
V:1 treble nm="Grand Piano"
V:3 treble 
V:2 bass 
V:4 bass 
V:1
 z4 z2 z[Q:1/4=92] C | A2 A2 B3 A | [CEA][B,EG][A,_E^F][B,=EG] [E,C]4 | %3
 [CEB]2 [CGB]2 [EAc]3 [EGB] | [CGB]A_A=A F3 F | c2 [Fc]2 [^Fd]3 [Fc] | [Ac]BAB G3 z/ B,/ | %7
 [CFc]3 [CGB] A2 CF |[M:7/8] A3 z z z2 |] %9
V:2
 z4 z2 z [F,A,] | [F,CF]2 [F,CF]2 [F,DF]3 [F,CF] | C,C,C,C, C,3 C | G,2 E,2 C,3 C, | %4
 E,[F,CF][F,=B,F][F,CF] [F,A,]3 [F,A,] | [F,A,F]2 [_E,A,]2 [D,A,]3 [D,D] | %6
 [^F,D][K:treble][G,DG][G,C^F][G,DG] [G,B,]3 [CE] | A,C,D,E, [F,CF]2 [F,A,][D,G,=B,] | %8
[M:7/8] [F,C]A,C C, F,3 |] %9
V:3
 x8 | x8 | x8 | x8 | x8 | x8 | z4 z2 z G | x8 |[M:7/8] z FE [B,EG] [A,F]3 |] %9
V:4
 x8 | x8 | x8 | x8 | x8 | x8 | x[K:treble] x7 | x8 |[M:7/8] C,3 z z z2 |] %9

